X:488
T:Wheel Hoss
C:Just Some Mandolin Pickers (Bush, Grisman, Marshall, McCoury, and Thile, Rockygrass, 2001)
N:Transcribed by Steve Keating
R:bluegrass
L:1/8
Q:1/4=270
M:4/4
K:C
"First Break"[g8B8D8] | "G"DB, DG "F"[F2A,2] FG | "G"DB, DG "F"FE FG | "G"DB, DG "F"FE F2 | 
"D"dc Bc "G"BG G2 | [g2B2] [g2B2] "F"[F2A,2] [F2A,2] | "G"G,B, [G2B,2] "F"[F2A,2] [F2A,2] | 
"G"G,B, DG "F"FA Bc | "D"dB cA "G"BG G2 | G,B, DG "F"[F2A,2] [F2A,2] | "G"DB, DG "F"FE FG | 
"G"DB, DG "F"FA Bc | "D"dB cA "G"BG G2 | G,B, DG "F"[F2A,2] FG | "G"DB, DG "F"FE FG | 
"G"DB, DG "F"FF Fe | "D"fe dc "G"BG Ge | eg ga g2 ga | ge dc BG Ge | eg ga gg gg | 
bg ag eg g2 | _b=b bb g2 ga | ge dc BG GG | DG GA Bd de | "D"fe dc "G"_B/=B/G GG | 
M:2/4
GG G2 | 
M:4/4
G,2 [g2B2D2] [BD][BD] [B2D2] | eg ga g2 ga | ge dc BG Ge | eg ga g2 ga | bg ag eg gg | 
_b=b bb g2 ga | ge dc BG GG | DG GA Bd de | 
K:G
"D"=fe dc "G"^A/B/G GG | 
M:2/4
G[DG,] [EG,][DG,] | 
M:4/4
[G2G,2] [DG,][DG,] [D4G,4] | "Second Break"G,A, B,D E/=F/z z2 | z2 E/=F/z zF F2 | 
E/=F/z z4 E/F/z | z4 =FB, G,A, | G,B, DE E/=F/z EF | G,G, G,2 =FE DF | ^A,B, =FE DF ED | 
A,E DB, G,2 G,G, | G,^A, B,G =F2 FG, | G,^A, B,G =FE DB, | G,^A, B,G =F2 FA | 
dB cB BG GG, | G,A, B,D E/=F/z E/F/z | z2 E/=F/z E/F/z FF | E/=F/z E/F/z FF F2 | 
=FE DB, G,G, G,2 | eg gg gg gg | gd cB BG G2 | eg gg g2 gg | bg ag eg gg | ab b2 g2 ga | 
gB dc BG GE | DE GA cA ^Ad | cA ^A=A G2 G,A, | 
M:2/4
B,D ED | 
M:4/4
G2 GG z2 e2 | eg zg g2 g2 | gd Bc BG G[BG] | eg gg g2 g2 | bg ag eg g2 | a/b/b b2 g2 ga | 
gd d2 BG GE | DE GA cA ^Ad | cA ^AB GG GG | 
M:2/4
GD (3=FED | 
M:4/4
G,2 zg G,G, [B2D2] | "Third Break"G,B, DG =F2 {^A,}B,=A, | G,B, DG =F2 {^A,}B,=A, | 
G,B, DG =F2 F2 | dA cd BG G2 | [GB,]B, DG =FE D[GB,] | B,C D=F (3EFE DC | B,C D=F ^FG A^A | 
AG AG =FE DC | EB, DE =FG AG | DG =F2 FE D^C | C^C DE =FE FE | D=F DC DC ^A,=A, | 
B,G zG, [=F2A,2] z[GB,] | zG zG, [=F2A,2] G,G, | GB GF =FF FD | =FE DC DC ^A,=A, | 
[gBDG,]g gg g2 ga | g=f dc ^AB G=F | Bd ef g2 gg | bg ag eg f^a | bf ^ge =f=g af | 
ge =fd ec ^cd | c^c B=c ^AB/A/ =AG | DG =FD ^FG, A,^A, | 
M:2/4
B,D EF | 
M:4/4
G2 GG Gd ef | gg ga ge dg | ed Ad (3BcB AG | Ag gg gg ga | bg ag eg a^a | eg ae g2 e=f | 
e=f ed ed cd | ^AB/A/ =AG AG =FA | CG, A,^A, G,2 =A,_B, | 
M:2/4
B,D EF | 
M:4/4
[B2G2] [BG][BG] [B2G2] [B2G2] | "Fourth Break"DG DC D=F DC | DG DC D=F DC | DG DC D=F DC | 
D^G =G=F D^C =C^A, | G,G DC D=F DC | G,G DC D=F DC | G,G DC ^A,D G=F | D^C =C^A, G,2 [DG,][DG,] | 
DG DC [=FC][FC] DC | DG DC D=F DC | DG [GG,][GG,] [=FG,][FG,] DC | B,^A, =A,A =F2 F2 | 
DG [B2G2] =FE DC | G,^A, B,A [=F2C2] [FC]A | zd dd BG Ge | gg gg gg gg | gd ^c2 ^A/B/G G=A | 
Bg gg gg gg | bg ag eg gg | ^a2 z/b/b g2 ga | gd cB AG ED | DE GA Bd ef | gf d2 AG DF | 
M:2/4
GE =F^F | 
M:4/4
G2 [gBD][gBD] [gBD][gBD] [g2B2D2] | [gBD][gBD] gg gg gg | gd ^c2 ^A/B/G G=A | 
Bg gg gg gb | bg ag eg g2 | ^a2 zb g2 zg | ga gB AG ED | DE GA Bd ef | ge dB AG GD | 
M:2/4
=FE DC | 
M:4/4
G,2 G,2 G,D =FG | "Fifth Break"GD GA =FD FA | =FG GD FD FA | zA =F2 FB zB | =F2 Fc zc cd | 
G,2 cB GB AG | DE =FG EC DC | ^A,B, C^C D^D E=F | FG A^A Bc ^cd | dd BG cc A=F | 
BB GE AA =Fd | dd BG cc A=F | Bc de =fe dd | dd BG cc A=F | BB GE AA =FD | GG EC =FF DB, | 
EB, DC DC B,A, | G,A, B,C DE =F2 | zD E=F GA B2 | zE =FG AB c2 | AB cd e=f zg | 
z=f zg aa g2 | ab ze ^a=a gd | =fg dc ^Ac AB | GE DB, G,A, z^A, | 
M:2/4
B,D =FD | 
M:4/4
=FG z[gB] z2 [g2A2] | [g2B2] [g^A]B z[gB] [=f2B2] | z2 [gA][gB] ze =fa | ga =fa c'a fc' | 
d'b gb d'e' g'g | g=f' gg e'g gf' | ge' gg d'2 c'd' | ^ab gd =fg dc | ^Ac AB GD =FD | 
zD DC A,B, ^A,B, | 
M:2/4
^A,B, A,B, | 
M:4/4
G,8 | DB, DG [A2=F2] [A2F2] | DB, DG =FE FG | DB, DG =FA Bc | dB cd (3BcB Ac | 
BA GB AG =FG | AG =FE DF (3EFE | DE =FD EC DE | z2 zC DB, G,G, | [edD][edD] [g4d4D4] [e2c2=F2] | 
=FE z2 E2 F2 | z4 (3E=FE DF | EC DE DC DE | CD EF GA Bd | cd fa gf gf | ga ge dg ef | 
ge dc BA BA | [gB]g ga ge ga | ge dc BA GA | Bd ef gf ga | bg ag eg gg | bg ag ed ge | 
dg ed BA GB | AG BA GB AG | EF GA G2 GE | 
M:2/4
DD FA | 
M:4/4
G4 G2 bc' | d'b c'b ac' ba | gb ag ed ge | d^A Be dA Be | de dB AG A^A | Bd eB de gd | 
eg bc' ba ge | de gd eB de | dB AB G2 GG | 
M:2/4
(3=FED (3FED | 
M:4/4
G,6 f/g/g | "Ending"ga ge dg ed | (3BcB AF G2 A^A | B^A BA =AG ED | GD ^A,=A, G,4 | 
z8 | z8 | z8 | 


